icons/ticket.svg

<svg width="24" height="24" viewBox="0 0 24 24" fill="none" xmlns="http://www.w3.org/2000/svg">
<path fill-rule="evenodd" clip-rule="evenodd" d="M2 4C2 3.44772 2.44772 3 3 3H21C21.5523 3 22 3.44772 22 4V9C22 9.55228 21.5523 10 21 10C19.8954 10 19 10.8954 19 12C19 13.1046 19.8954 14 21 14C21.5523 14 22 14.4477 22 15V20C22 20.5523 21.5523 21 21 21H3C2.44772 21 2 20.5523 2 20V15C2 14.4477 2.44772 14 3 14C4.10457 14 5 13.1046 5 12C5 10.8954 4.10457 10 3 10C2.44772 10 2 9.55228 2 9V4ZM4 5V8.12602C5.72523 8.57006 7 10.1362 7 12C7 13.8638 5.72523 15.4299 4 15.874V19H20V15.874C18.2748 15.4299 17 13.8638 17 12C17 10.1362 18.2748 8.57006 20 8.12602V5H4Z" fill="black"/>
</svg>

<svg
  width="24"
  height="24"
  viewBox="0 0 24 24"
  xmlns="http://www.w3.org/2000/svg"
>
  <path
    fill-rule="evenodd"
    clip-rule="evenodd"
    d="M2 4a1 1 0 0 1 1-1h18a1 1 0 0 1 1 1v5a1 1 0 0 1-1 1 2 2 0 1 0 0 4 1 1 0 0 1 1 1v5a1 1 0 0 1-1 1H3a1 1 0 0 1-1-1v-5a1 1 0 0 1 1-1 2 2 0 1 0 0-4 1 1 0 0 1-1-1V4zm2 1v3.126a4.002 4.002 0 0 1 0 7.748V19h16v-3.126a4.002 4.002 0 0 1 0-7.748V5H4z"
  />
</svg>
